!!!SOCIAL_FUNCTION:	dance songs
!!!PDT:	1943
!!!OTL: No_44_Klokali_Dance_Song.krn
!!!REG: British Columbia
**kern	**kern
*staff2	*staff1
=1-	=1-
*clefF4	*clefF4
*k[]	*k[]
*M2/4	*M2/4
4GG/	4r
4GG/	8.r
.	16A\
=2!|:	=2!|:
4GG/	2c\
4GG/	.
=3||	=3||
*M3/4	*M3/4
4GG/	8d\L
.	8c\J
4GG/	8c\L
.	8c\J
4r	8c\
.	16r
.	16c\
=4||	=4||
*M2/4	*M2/4
2r	8c\L
.	8B\J
.	4c\
=5||	=5||
*M3/4	*M3/4
2.r	8c\L
.	8c\J
.	8c\L
.	8c\J
.	8c\
.	16r
.	16c\
=6||	=6||
*M2/4	*M2/4
2r	8c\L
.	8B\J
.	4c\
=7||	=7||
=	=
*M3/4	*M3/4
2.r	8c\L
.	8c\J
.	8c\L
.	8c\J
.	8c\
.	16r
.	16A\
=8:|!	=8:|!
*M3/4	*M3/4
2.r	8c\L
.	8c\J
.	8c\L
.	8c\J
.	8c\
.	8r
==	==
*-	*-
